assets/icons/eyes.svg

<svg width="30" height="30" viewBox="0 0 30 30" fill="none" xmlns="http://www.w3.org/2000/svg">
<path fill-rule="evenodd" clip-rule="evenodd" d="M2.08904 14.7009C4.76827 10.5874 9.55305 7.85938 15 7.85938C20.447 7.85938 25.2317 10.5874 27.911 14.6993C27.9691 14.7885 28 14.8927 28 14.9992C28 15.1056 27.9691 15.2098 27.911 15.299C25.2317 19.4139 20.4454 22.1405 15 22.1405C9.55305 22.1405 4.76827 19.4124 2.08904 15.3005C2.03093 15.2113 2 15.1071 2 15.0007C2 14.8942 2.03093 14.7901 2.08904 14.7009ZM3.21047 14.9999C5.72034 18.6327 10.0581 21.0419 15 21.0419C19.9419 21.0419 24.2766 18.6312 26.7895 14.9999C24.2766 11.3686 19.9419 8.95792 15 8.95792C10.0581 8.95792 5.72034 11.3686 3.21047 14.9999ZM10.8624 15C10.8624 13.9026 11.2983 12.8502 12.0743 12.0743C12.8502 11.2983 13.9026 10.8624 15 10.8624C16.0973 10.8624 17.1497 11.2983 17.9257 12.0743C18.7016 12.8502 19.1375 13.9026 19.1375 15C19.1375 16.0973 18.7016 17.1497 17.9257 17.9257C17.1497 18.7016 16.0973 19.1375 15 19.1375C13.9026 19.1375 12.8502 18.7016 12.0743 17.9257C11.2983 17.1497 10.8624 16.0973 10.8624 15ZM15 11.7819C14.5774 11.7819 14.1589 11.8651 13.7685 12.0268C13.378 12.1886 13.0233 12.4256 12.7244 12.7244C12.4256 13.0233 12.1886 13.378 12.0268 13.7685C11.8651 14.1589 11.7819 14.5774 11.7819 15C11.7819 15.4226 11.8651 15.841 12.0268 16.2315C12.1886 16.6219 12.4256 16.9767 12.7244 17.2755C13.0233 17.5743 13.378 17.8114 13.7685 17.9731C14.1589 18.1348 14.5774 18.2181 15 18.2181C15.8535 18.2181 16.672 17.879 17.2755 17.2755C17.879 16.672 18.2181 15.8535 18.2181 15C18.2181 14.1465 17.879 13.3279 17.2755 12.7244C16.672 12.1209 15.8535 11.7819 15 11.7819Z" fill="#485FC7"/>
<path fill-rule="evenodd" clip-rule="evenodd" d="M1.87957 14.5644C4.60514 10.3798 9.4689 7.60938 15 7.60938C20.5311 7.60938 25.3948 10.3798 28.1204 14.5629C28.205 14.6927 28.25 14.8443 28.25 14.9992C28.25 15.154 28.205 15.3056 28.1205 15.4354C25.3949 19.6216 20.5295 22.3905 15 22.3905C9.4689 22.3905 4.60516 19.62 1.87958 15.437C1.79503 15.3072 1.75 15.1556 1.75 15.0007C1.75 14.8458 1.79502 14.6942 1.87957 14.5644ZM15 8.10938C9.6372 8.10938 4.93141 10.795 2.29852 14.8373C2.26686 14.8859 2.25 14.9427 2.25 15.0007C2.25 15.0587 2.26685 15.1154 2.2985 15.164C4.93139 19.2048 9.63719 21.8905 15 21.8905C20.3613 21.8905 25.0686 19.2063 27.7015 15.1626C27.7331 15.114 27.75 15.0572 27.75 14.9992M15 8.10938C20.3628 8.10938 25.0686 10.795 27.7015 14.8358L15 8.10938ZM3.51576 14.9999C5.99312 18.4858 10.2049 20.7919 15 20.7919C19.7949 20.7919 24.0038 18.4845 26.4841 14.9999C24.0038 11.5154 19.7949 9.20792 15 9.20792C10.205 9.20792 5.99316 11.5155 3.51576 14.9999ZM3.00481 14.8578C5.56142 11.1589 9.97606 8.70792 15 8.70792C20.024 8.70792 24.4355 11.1589 26.9951 14.8577L27.0935 14.9999L26.9951 15.1422C24.4355 18.8409 20.024 21.2919 15 21.2919C9.97611 21.2919 5.56143 18.8425 3.00479 15.142L2.90659 14.9999L3.00481 14.8578ZM11.8975 11.8975C12.7203 11.0747 13.8363 10.6124 15 10.6124C16.1636 10.6124 17.2796 11.0747 18.1024 11.8975C18.9253 12.7203 19.3875 13.8363 19.3875 15C19.3875 16.1636 18.9253 17.2796 18.1024 18.1024C17.2796 18.9253 16.1636 19.3875 15 19.3875C13.8363 19.3875 12.7203 18.9253 11.8975 18.1024C11.0747 17.2796 10.6124 16.1636 10.6124 15C10.6124 13.8363 11.0747 12.7203 11.8975 11.8975ZM15 11.1124C13.9689 11.1124 12.9801 11.522 12.2511 12.2511C11.522 12.9801 11.1124 13.9689 11.1124 15C11.1124 16.031 11.522 17.0198 12.2511 17.7489C12.9801 18.4779 13.9689 18.8875 15 18.8875C16.031 18.8875 17.0198 18.4779 17.7489 17.7489C18.4779 17.0198 18.8875 16.031 18.8875 15C18.8875 13.9689 18.4779 12.9801 17.7489 12.2511C17.0198 11.522 16.031 11.1124 15 11.1124ZM15 12.0319C14.6102 12.0319 14.2242 12.1087 13.8641 12.2578C13.504 12.407 13.1768 12.6256 12.9012 12.9012C12.6256 13.1768 12.407 13.504 12.2578 13.8641C12.1087 14.2242 12.0319 14.6102 12.0319 15C12.0319 15.3898 12.1087 15.7757 12.2578 16.1358C12.407 16.4959 12.6256 16.8231 12.9012 17.0987C13.1768 17.3743 13.504 17.593 13.8641 17.7421C14.2242 17.8913 14.6102 17.9681 15 17.9681C15.7872 17.9681 16.5421 17.6554 17.0987 17.0987C17.6554 16.5421 17.9681 15.7872 17.9681 15C17.9681 14.2128 17.6554 13.4578 17.0987 12.9012C16.5421 12.3446 15.7872 12.0319 15 12.0319ZM13.6728 11.7959C14.0936 11.6216 14.5445 11.5319 15 11.5319C15.9198 11.5319 16.8019 11.8973 17.4523 12.5477C18.1027 13.1981 18.4681 14.0802 18.4681 15C18.4681 15.9198 18.1027 16.8019 17.4523 17.4523C16.8019 18.1027 15.9198 18.4681 15 18.4681C14.5445 18.4681 14.0936 18.3784 13.6728 18.2041C13.252 18.0298 12.8697 17.7743 12.5477 17.4523C12.2256 17.1302 11.9702 16.7479 11.7959 16.3272C11.6216 15.9064 11.5319 15.4554 11.5319 15C11.5319 14.5445 11.6216 14.0936 11.7959 13.6728C11.9702 13.252 12.2256 12.8697 12.5477 12.5477C12.8697 12.2256 13.252 11.9702 13.6728 11.7959Z" fill="#485FC7"/>
</svg>

<svg width="30" height="30" fill="none" xmlns="http://www.w3.org/2000/svg"><path fill-rule="evenodd" clip-rule="evenodd" d="M2.089 14.7C4.769 10.588 9.553 7.86 15 7.86c5.447 0 10.232 2.727 12.911 6.84a.55.55 0 0 1 0 .599C25.231 19.414 20.445 22.14 15 22.14c-5.447 0-10.232-2.728-12.911-6.84a.55.55 0 0 1 0-.6Zm1.121.3c2.51 3.633 6.848 6.042 11.79 6.042 4.942 0 9.277-2.41 11.79-6.042-2.513-3.631-6.848-6.042-11.79-6.042-4.942 0-9.28 2.41-11.79 6.042Zm7.652 0a4.137 4.137 0 1 1 8.275 0 4.137 4.137 0 0 1-8.275 0ZM15 11.782a3.218 3.218 0 1 0 0 6.437 3.218 3.218 0 0 0 0-6.437Z" fill="#485FC7"/><path fill-rule="evenodd" clip-rule="evenodd" d="M1.88 14.564C4.605 10.38 9.469 7.61 15 7.61c5.531 0 10.395 2.77 13.12 6.954a.799.799 0 0 1 0 .872C25.395 19.622 20.53 22.39 15 22.39c-5.531 0-10.395-2.77-13.12-6.953a.8.8 0 0 1 0-.873ZM15 8.11c-5.363 0-10.069 2.686-12.701 6.728a.3.3 0 0 0 0 .327C4.93 19.204 9.636 21.89 15 21.89c5.361 0 10.069-2.684 12.701-6.727a.3.3 0 0 0 .049-.164M15 8.11c5.363 0 10.069 2.686 12.701 6.727L15 8.109ZM3.516 15c2.477 3.487 6.689 5.793 11.484 5.793S24.004 18.484 26.484 15c-2.48-3.485-6.69-5.792-11.484-5.792-4.795 0-9.007 2.307-11.484 5.792Zm-.511-.141c2.556-3.7 6.971-6.15 11.995-6.15 5.024 0 9.436 2.45 11.995 6.15l.098.142-.098.142c-2.56 3.699-6.971 6.15-11.995 6.15-5.024 0-9.439-2.45-11.995-6.15L2.907 15l.098-.142Zm8.893-2.96a4.388 4.388 0 1 1 6.205 6.205 4.388 4.388 0 0 1-6.206-6.206ZM15 11.112a3.887 3.887 0 1 0 0 7.775 3.887 3.887 0 0 0 0-7.775Zm0 .92a2.97 2.97 0 0 0-1.136 5.71A2.968 2.968 0 1 0 15 12.032Zm-1.327-.236a3.468 3.468 0 1 1 2.654 6.408 3.468 3.468 0 0 1-2.654-6.408Z" fill="#485FC7"/></svg>
